polaris-icons/icons/new-icons/LocationMajor.svg

<svg width="20" height="20" viewBox="0 0 20 20" fill="none" xmlns="http://www.w3.org/2000/svg">
<path fill-rule="evenodd" clip-rule="evenodd" d="M10 10.5C11.3807 10.5 12.5 9.38071 12.5 8C12.5 6.61929 11.3807 5.5 10 5.5C8.61929 5.5 7.5 6.61929 7.5 8C7.5 9.38071 8.61929 10.5 10 10.5ZM10 9C10.5523 9 11 8.55228 11 8C11 7.44772 10.5523 7 10 7C9.44772 7 9 7.44772 9 8C9 8.55228 9.44772 9 10 9Z" fill="#4A4A4A"/>
<path fill-rule="evenodd" clip-rule="evenodd" d="M4.25 8.2267C4.25 5.06063 6.82767 2.5 10 2.5C13.1723 2.5 15.75 5.06063 15.75 8.2267C15.75 10.9258 14.6219 13.2122 13.4098 14.8082C13.0689 15.257 12.7177 15.6564 12.3766 16H14.25C14.6642 16 15 16.3358 15 16.75C15 17.1642 14.6642 17.5 14.25 17.5H5.75C5.33579 17.5 5 17.1642 5 16.75C5 16.3358 5.33579 16 5.75 16H7.62343C7.28233 15.6564 6.93107 15.257 6.59022 14.8082C5.37808 13.2122 4.25 10.9258 4.25 8.2267ZM10 4C7.64948 4 5.75 5.89566 5.75 8.2267C5.75 10.5042 6.70525 12.4796 7.78478 13.901C8.32296 14.6096 8.88011 15.1643 9.33851 15.5347C9.56858 15.7206 9.76284 15.8511 9.90778 15.931C9.94589 15.952 9.97645 15.9671 10 15.978C10.0235 15.9671 10.0541 15.952 10.0922 15.931C10.2372 15.8511 10.4314 15.7206 10.6615 15.5347C11.1199 15.1643 11.677 14.6096 12.2152 13.901C13.2947 12.4796 14.25 10.5042 14.25 8.2267C14.25 5.89566 12.3505 4 10 4Z" fill="#4A4A4A"/>
</svg>

<svg viewBox="0 0 20 20" xmlns="http://www.w3.org/2000/svg"><path fill-rule="evenodd" d="M10 10.5a2.5 2.5 0 1 0 0-5 2.5 2.5 0 0 0 0 5Zm0-1.5a1 1 0 1 0 0-2 1 1 0 0 0 0 2Z" fill="#5C5F62"/><path fill-rule="evenodd" d="M4.25 8.227c0-3.166 2.578-5.727 5.75-5.727s5.75 2.56 5.75 5.727c0 2.699-1.128 4.985-2.34 6.581-.341.449-.692.848-1.033 1.192h1.873a.75.75 0 0 1 0 1.5h-8.5a.75.75 0 0 1 0-1.5h1.873a11.997 11.997 0 0 1-1.033-1.192c-1.212-1.596-2.34-3.882-2.34-6.581Zm5.75-4.227c-2.35 0-4.25 1.896-4.25 4.227 0 2.277.955 4.253 2.035 5.674a9.605 9.605 0 0 0 1.554 1.634c.23.186.424.316.569.396.038.021.068.036.092.047.024-.01.054-.026.092-.047.145-.08.34-.21.57-.396a9.606 9.606 0 0 0 1.553-1.634c1.08-1.421 2.035-3.397 2.035-5.674 0-2.331-1.9-4.227-4.25-4.227Z" fill="#5C5F62"/></svg>
